!!!!SEGMENT: pl-gd--ee-1638--002-033_marenzio-luca--motettorum-pro-festis-totius-anni-in-festo-s-luciae-virg-et-mart-in-tua-patientia.krn
!!!cenid: 15xx:1036
!!!COM: Marenzio, Luca
!!!COM-rismID: pe30003955
!!!CDT: ~1553-1599/08/22
!!!CNT: Italian
!!!GTL: Motettorum pro festis totius anni
!!!OTL: In festo S. Luciae virg. Et mart./In tua patientia
!!!OMV: 033
!!!PDT: 1588
!!!AGN:
!!!SMS-siglum: PL-GD
!!!SMS-shelfmark: Ee 1638
!!!SMS-variant:
!!!SMS-altvar:
!!!SMS-shelfwork: 002-033 G
!!!NIFC-rismSourceID: 1001202747
!!!NIFC-rismChildID: 990039238
!!!NIFC-islandoraID: pl-gd:57883
!!!URL-pdf-islandora: https://repozytorium.nifc.pl/islandora/object/pl-gd%3A57883/datastream/PDF/view
!!!URL-scan: https://polish.musicsources.pl/pl/lokalizacje/galeria/klocki-introligatorskie/655 @EN{Scan on Polish Music Sources Website} @PL{Skany w portalu Dziedzictwo Muzyki Polskiej w otwartym dostępie}
!!!IIIF: https://repozytorium.nifc.pl/islandora/object/pl-gd%3A57883/datastream/IIIF/view
!!!ONB-nifc: UWAGA: Cantus: s. 632 (prawa), Altus: s. 480 (prawa), Tenor: s. 328 (prawa), Bassus: s. 176 (prawa)
!!!AIN: 1 alto 1 bass 1 soprn 1 tenor
!!!key:
**kern	**text	**kern	**text	**kern	**text	**kern	**text
*part4	*part4	*part3	*part3	*part2	*part2	*part1	*part1
*staff4	*staff4	*staff3	*staff3	*staff2	*staff2	*staff1	*staff1
*I"Basso	*	*I"Tenor	*	*I"Altus	*	*I"Cantus	*
*I'B	*	*I'T	*	*I'A	*	*I'C	*
*Ibass	*	*Itenor	*	*Ialto	*	*Isoprn	*
*ICvox	*	*ICvox	*	*ICvox	*	*ICvox	*
*clefC4	*	*clefC3	*	*clefC2	*	*clefG2	*
*k[]	*	*k[]	*	*k[]	*	*k[]	*
*G:	*	*G:	*	*G:	*	*G:	*
*M2/1	*	*M2/1	*	*M2/1	*	*M2/1	*
*met(C|)	*	*met(C|)	*	*met(C|)	*	*met(C|)	*
=1-	=1-	=1-	=1-	=1-	=1-	=1-	=1-
*xywh-#176:4549,511,3552,840	*	*	*	*	*	*	*
*	*	*xywh-#328:4543,492,3434,806	*	*	*	*	*
*	*	*	*	*xywh-#480:4462,525,3440,799	*	*	*
*	*	*	*	*	*	*xywh-#632:4542,496,3361,830	*
!	!	!	!	!	!	!LO:TX:a:B:t=Prestissimo	!
0G	IN	0r	.	1r	.	0r	.
.	.	.	.	0g	IN	.	.
=2-	=2-	=2-	=2-	=2-	=2-	=2-	=2-
1B	tu-	0r	.	.	.	0r	.
1c	-a	.	.	1e	tu-	.	.
=3-	=3-	=3-	=3-	=3-	=3-	=3-	=3-
2r	.	0r	.	0d	-a	0dd	IN
1G	pa-	.	.	.	.	.	.
2F#X/	-ti-	.	.	.	.	.	.
=4-	=4-	=4-	=4-	=4-	=4-	=4-	=4-
4G/	-en-	0d	IN	2r	.	1b	tu-
4A/	.	.	.	.	.	.	.
4B\	.	.	.	1g	pa-	.	.
4c\	.	.	.	.	.	.	.
2.d\	.	.	.	.	.	1a	-a
.	.	.	.	2f#X\	-ti-	.	.
4d\	-ti-	.	.	.	.	.	.
=5-	=5-	=5-	=5-	=5-	=5-	=5-	=5-
1G	-a	1B	tu-	2.g\	-en-	2r	.
.	.	.	.	.	.	1dd	pa-
.	.	.	.	4d/	.	.	.
1r	.	1A	-a	2fny\	.	.	.
.	.	.	.	2e/	-ti-	2cc#X\	-ti-
=6-	=6-	=6-	=6-	=6-	=6-	=6-	=6-
1G	In	2r	.	1d	-a	2.dd\	-en-
.	.	1d	pa-	.	.	.	.
.	.	.	.	.	.	4dd\	-ti-
1E	tu-	.	.	2r	.	1g	-a
.	.	2c#X/	-ti-	1g\	pa-	.	.
=7-	=7-	=7-	=7-	=7-	=7-	=7-	=7-
!LO:SIC:v:t=custos G	!	!	!	!	!	!	!
1D	-a	2.d\	-en-	.	.	1r	.
*xywh-#176:4580,1210,3387,723	*	*	*	*	*	*	*
!LO:LB:g=original	!	!	!	!	!	!	!
.	.	.	.	2f#X\	-ti-	.	.
.	.	4d\	-ti-	.	.	.	.
2r	.	4G/	-a	2.g\	-en-	0dd	In
.	.	4A/	.	.	.	.	.
1G/	pa-	4B/	.	.	.	.	.
.	.	4cny/	.	4a\	.	.	.
=8-	=8-	=8-	=8-	=8-	=8-	=8-	=8-
.	.	0d	.	4b\	.	.	.
!	!	!	!	!LO:SIC:v:t=custos a	!	!	!
.	.	.	.	4g\	.	.	.
*	*	*	*	*xywh-#480:4446,1175,3417,681	*	*	*
!	!	!	!	!LO:LB:g=original	!	!	!
2F#X/	-ti-	.	.	2.a\	.	.	.
2.G/	-en-	.	.	.	.	1b	tu-
.	.	.	.	4g\	.	.	.
.	.	.	.	1g\	.	.	.
4G/	-ti-	.	.	.	.	.	.
=9-	=9-	=9-	=9-	=9-	=9-	=9-	=9-
00D	-a	1r	.	.	.	0a	-a
.	.	.	.	4fny\	.	.	.
.	.	.	.	4e\	.	.	.
.	.	0d	In	2.f\	.	.	.
.	.	.	.	4g\	.	.	.
=10-	=10-	=10-	=10-	=10-	=10-	=10-	=10-
.	.	.	.	4a\	.	1.dd	pa-
.	.	.	.	4f\	.	.	.
.	.	.	.	2.b\	.	.	.
.	.	1f#X	tu-	.	.	.	.
.	.	.	.	4a\	.	.	.
.	.	.	.	2.a\	.	2cc\	-ti-
=11-	=11-	=11-	=11-	=11-	=11-	=11-	=11-
!	!	!LO:SIC:v:t=custos d	!	!	!	!	!
2r	.	1g	-a	.	.	2.b/	-en-
*	*	*xywh-#328:4527,1183,3427,691	*	*	*	*	*
!	!	!LO:LB:g=original	!	!	!	!	!
.	.	.	.	4g\	.	.	.
2G/	poſ-	.	.	1g	.	.	.
.	.	.	.	.	.	8a/	.
.	.	.	.	.	.	8g/	.
1d	-ſe-	2r	.	.	.	2.a/	.
.	.	1d\	pa-	2f#X\	-ti-	.	.
.	.	.	.	.	.	4a/	-ti-
=12-	=12-	=12-	=12-	=12-	=12-	=12-	=12-
2B\	-diſ-	.	.	0g	-a	2b/	-a
2c\	-ti	2e\	-ti-	.	.	2g/	poſ-
2.G/	a-	2.d\	-en-	.	.	2dd\	-ſe-
!	!	!	!	!	!	!LO:SIC:v:t=custos cc	!
.	.	.	.	.	.	2b/	-di-
*	*	*	*	*	*	*xywh-#632:4511,1195,3509,675	*
!	!	!	!	!	!	!LO:LB:g=original	!
4G/	-ni-	4d\	-ti-	.	.	.	.
=13-	=13-	=13-	=13-	=13-	=13-	=13-	=13-
2A/	-mam	2.c/	-a	2r	.	2cc\	-ſti
2.c\	tu-	.	.	2c/	poſ-	2.ee\	a-
.	.	8B/	.	.	.	.	.
.	.	8A/	.	.	.	.	.
.	.	1G	.	1g	-ſe-	.	.
4B\	.	.	.	.	.	4dd\	-ni-
4B\	.	.	.	.	.	2dd\	-mam
8A/	.	.	.	.	.	.	.
8G/	.	.	.	.	.	.	.
=14-	=14-	=14-	=14-	=14-	=14-	=14-	=14-
0A	.	1r	.	2e/	-diſ-	2.cc\	tu-
.	.	.	.	2fny\	-ti-	.	.
.	.	.	.	.	.	4dd\	.
.	.	2r	.	2.c/	.	4ee\	.
.	.	.	.	.	.	4dd\	.
.	.	2c/	poſ-	.	.	2.cc\	.
.	.	.	.	4c/	-ni-	.	.
=15-	=15-	=15-	=15-	=15-	=15-	=15-	=15-
1G	-am	1g	-ſe-	2d/	-mam	.	.
.	.	.	.	.	.	8b/	.
.	.	.	.	.	.	8a/	.
*	*	*	*	*lig	*	*	*
.	.	.	.	1g	tu-	2b/	.
1r	.	2e\	-diſ-	.	.	2cc\	.
*	*	*	*	*col	*	*	*
.	.	2fny\	-ti	2.f\	.	2a/	.
*	*	*	*	*Xlig	*	*	*
=16-	=16-	=16-	=16-	=16-	=16-	=16-	=16-
!LO:SIC:v:t=custos D	!	!	!	!	!	!	!
1r	.	2.c/	a-	.	.	1g	.
.	.	.	.	8e/	.	.	.
*xywh-#176:4572,1768,3513,723	*	*	*	*	*	*	*
!LO:LB:g=original	!	!	!	!LO:SIC:v:t=custos e	!	!	!
.	.	.	.	8d/	.	.	.
*	*	*	*	*xywh-#480:4478,1700,3472,697	*	*	*
!	!	!	!	!LO:LB:g=original	!	!	!
*	*	*	*	*Xcol	*	*	*
.	.	.	.	2e/	.	.	.
.	.	4c/	-ni-	.	.	.	.
2r	.	2d\	-mam	2f\	.	2.f/	-am
*	*ij	*	*	*	*	*	*
2D/	pos-	2.f\	tu-	2.d/	.	.	.
.	.	.	.	.	.	4g/	.
=17-	=17-	=17-	=17-	=17-	=17-	=17-	=17-
1A	-se-	.	.	.	.	1a	.
.	.	4e\	.	4c/	.	.	.
.	.	4e\	.	1c	.	.	.
.	.	8d\	.	.	.	.	.
.	.	8c\	.	.	.	.	.
2F#X/	-dis-	2.d\	.	.	.	2r	.
2G/	-ti	.	.	2B/	.	2g/	poſ-
.	.	4e\	.	.	.	.	.
=18-	=18-	=18-	=18-	=18-	=18-	=18-	=18-
2.D/	a-	1f	.	1A	-am	1dd	-ſe-
4D/	-ni-	.	.	.	.	.	.
!	!	!LO:SIC:v:t=custos g	!	!	!	!	!
2E/	-mam	1e	-am	2r	.	2b/	-diſ-
*	*	*xywh-#328:4550,1744,3365,683	*	*	*	*	*
!	!	!LO:LB:g=original	!	!	!	!	!
*	*	*	*	*	*ij	*	*
2.c\	tu-	.	.	2c/	pos-	2ee\	-ti
=19-	=19-	=19-	=19-	=19-	=19-	=19-	=19-
.	.	0r	.	1g	-se-	2.dd\	a-
4B\	.	.	.	.	.	.	.
4B\	.	.	.	.	.	.	.
8A/	.	.	.	.	.	4cc\	-ni-
8G/	.	.	.	.	.	.	.
1A	.	.	.	2e\	-dis-	2cc\	-mam
.	.	.	.	2f\	-ti	2.cc\	tu-
=20-	=20-	=20-	=20-	=20-	=20-	=20-	=20-
1G	-am	2r	.	2.g\	a-	.	.
*	*Xij	*	*	*	*	*	*
.	.	.	.	.	.	4b/	.
!	!	!	!	!	!	!LO:SIC:v:t=custos a	!
.	.	2G/	poſ-	.	.	4b/	.
*	*	*	*	*	*	*xywh-#632:4511,1762,3501,621	*
!	!	!	!	!	!	!LO:LB:g=original	!
.	.	.	.	4d/	-ni-	8a/	.
.	.	.	.	.	.	8g/	.
1r	.	1d	-ſe-	1f	-mam	2a/	.
.	.	.	.	.	.	1dd\	.
=21-	=21-	=21-	=21-	=21-	=21-	=21-	=21-
2r	.	2B/	-diſ-	1g	tu-	.	.
*	*ij	*	*	*	*	*	*
2C/	pos-	2e\	-ti	.	.	1cc	.
1G	-se-	2.d\	a-	1.g	-am	.	.
*	*	*	*	*	*Xij	*	*
.	.	.	.	.	.	2b/	.
.	.	4d\	-ni-	.	.	.	.
=22-	=22-	=22-	=22-	=22-	=22-	=22-	=22-
2E/	-dis-	1c	-mam	.	.	2cc\	-am
2Fny/	-ti	.	.	1f	a-	4a/	tu-
.	.	.	.	.	.	4b/	.
2.C/	a-	2r	.	.	.	4cc\	.
.	.	.	.	.	.	4dd\	.
.	.	2.g\	tu-	2e/	-ni-	2.ee\	.
4C/	-ni-	.	.	.	.	.	.
=23-	=23-	=23-	=23-	=23-	=23-	=23-	=23-
1D	-mam	.	.	1a	-mam	.	.
.	.	4f\	.	.	.	4dd\	.
.	.	4f\	.	.	.	1dd	.
.	.	8e\	.	.	.	.	.
.	.	8d\	.	.	.	.	.
1A	tu-	1e	.	1a	tu-	.	.
.	.	.	.	.	.	2cc#X\	.
=24-	=24-	=24-	=24-	=24-	=24-	=24-	=24-
!LO:SIC:v:t=custos G	!	!	!	!	!	!	!
1D	-am	1f	-am	1a	-am	1dd	-am
*xywh-#176:4580,2303,3403,707	*	*	*	*	*	*	*
!LO:LB:g=original	!	!	!	!	!	!	!
*	*Xij	*	*	*	*	*	*
1G	Lu-	1d	Lu-	1g	Le-	1b	Lu-
=25-	=25-	=25-	=25-	=25-	=25-	=25-	=25-
!	!	!	!	!LO:SIC:v:t=custos g	!	!	!
1C	-ci-	1e	-ci-	1g	-ci-	1ccny	-ci-
*	*	*	*	*xywh-#480:4485,2280,3440,674	*	*	*
!	!	!	!	!LO:LB:g=original	!	!	!
0G	-a	0d	-a	1g	-a	2b/	-a
.	.	.	.	.	.	4g/	ſpon-
.	.	.	.	.	.	4a/	.
=26-	=26-	=26-	=26-	=26-	=26-	=26-	=26-
.	.	.	.	2r	.	4b/	.
.	.	.	.	.	.	4cc\	.
.	.	.	.	2d/	ſpon-	4dd\	.
.	.	.	.	.	.	4b/	.
1r	.	1r	.	2e/	-ſa	2cc\	.
!	!	!	!	!	!	!LO:SIC:v:t=custos a	!
.	.	.	.	2.g\	Chri-	2b/	-ſa
*	*	*	*	*	*	*xywh-#632:4511,2274,3524,690	*
!	!	!	!	!	!	!LO:LB:g=original	!
=27-	=27-	=27-	=27-	=27-	=27-	=27-	=27-
1r	.	1d	Lu-	.	.	1a	Chriſ-
.	.	.	.	8f#X\	.	.	.
.	.	.	.	8e\	.	.	.
.	.	.	.	2f#X\	.	.	.
2r	.	1G	-ci-	1g	-ſti	2.b/	.
4G/	ſpon-	.	.	.	.	.	.
4A/	.	.	.	.	.	4cc\	.
=28-	=28-	=28-	=28-	=28-	=28-	=28-	=28-
4B\	.	2d\	-a	0r	.	1dd	-ti
4c\	.	.	.	.	.	.	.
4d\	.	2d\	ſpon-	.	.	.	.
4B\	.	.	.	.	.	.	.
!	!	!LO:SIC:v:t=custos g	!	!	!	!	!
2c\	.	2e\	-ſa	.	.	1r	.
*	*	*xywh-#328:4558,2274,3442,676	*	*	*	*	*
!	!	!LO:LB:g=original	!	!	!	!	!
2B\	-ſa	2.g\	Chri-	.	.	.	.
=29-	=29-	=29-	=29-	=29-	=29-	=29-	=29-
1A	Chriſ-	.	.	2r	.	1r	.
.	.	8f#X\	.	.	.	.	.
.	.	8e\	.	.	.	.	.
*	*	*	*	*	*ij	*	*
.	.	2f#X\	.	4c/	spon-	.	.
.	.	.	.	4d/	.	.	.
1G	-ti	1g	-ſti	4e/	.	2r	.
.	.	.	.	4fny\	.	.	.
.	.	.	.	4g\	.	2g/	ſpon-
.	.	.	.	4e/	.	.	.
=30-	=30-	=30-	=30-	=30-	=30-	=30-	=30-
1r	.	1r	.	2f\	-sa	2a/	-ſa
.	.	.	.	2e/	.	2.cc\	Chri-
2r	.	2r	.	1d	Chri-	.	.
.	.	.	.	.	.	8b/	.
.	.	.	.	.	.	8a/	.
2G/	o-	2g\	o-	.	.	2b/	.
=31-	=31-	=31-	=31-	=31-	=31-	=31-	=31-
4A/	-di-	4e\	-di-	1a	-sti	1cc	-ſti
*	*	*	*	*	*Xij	*	*
4B\	.	4d\	.	.	.	.	.
4c\	.	4e\	.	.	.	.	.
4A/	.	4fny\	.	.	.	.	.
2B\	.	2d\	.	2r	.	2r	.
2c\	-ſti	2e\	-ſti	2g\	o-	2gg\	o-
=32-	=32-	=32-	=32-	=32-	=32-	=32-	=32-
1r	.	1r	.	4a\	-di-	4ee\	-di-
.	.	.	.	4b\	.	4dd\	.
.	.	.	.	4cc\	.	4ee\	.
!	!	!	!	!LO:SIC:v:t=custos b	!	!	!
.	.	.	.	4a\	.	4ff\	.
*	*	*	*	*xywh-#480:4462,2845,3448,650	*	*	*
!	!	!	!	!LO:LB:g=original	!	!	!
!LO:SIC:v:t=custos A	!	!	!	!	!	!	!
*	*	*	*ij	*	*	*	*
2G/	o-	2g\	o-	2b\	.	2dd\	.
*xywh-#176:4564,2829,3465,715	*	*	*	*	*	*	*
!LO:LB:g=original	!	!	!	!	!	!	!
4A/	-di-	4e\	.	2cc\	-ſti	2cc\	-ſti
4B\	.	4d\	.	.	.	.	.
=33-	=33-	=33-	=33-	=33-	=33-	=33-	=33-
4c\	.	4e\	.	2r	.	1r	.
4A/	.	4f\	.	.	.	.	.
2B\	.	2d\	-di-	1g	quae	.	.
1c	-ſti	4c\	.	.	.	2r	.
.	.	4d\	.	.	.	.	.
.	.	4e\	.	2a\	in	2.ee\	quae
.	.	4f\	.	.	.	.	.
=34-	=34-	=34-	=34-	=34-	=34-	=34-	=34-
1G	quae	1g	-ſti	1b-X	mun-	.	.
*	*	*	*Xij	*	*	*	*
.	.	.	.	.	.	4dd\	in
.	.	.	.	.	.	1dd	mun-
1A	in	2r	.	2.a\	-do	.	.
!	!	!	!	!	!	!LO:SIC:v:t=custos dd	!
.	.	2.e\	quae	.	.	2cc#X\	-do
*	*	*	*	*	*	*xywh-#632:4527,2833,3493,652	*
!	!	!	!	!	!	!LO:LB:g=original	!
.	.	.	.	4g\	.	.	.
=35-	=35-	=35-	=35-	=35-	=35-	=35-	=35-
1B-X	mun-	.	.	2.f\	.	1dd	ſunt
!	!	!LO:SIC:v:t=custos d	!	!	!	!	!
.	.	4d\	in	.	.	.	.
*	*	*xywh-#328:4581,2820,3419,691	*	*	*	*	*
!	!	!LO:LB:g=original	!	!	!	!	!
.	.	1d	mun-	.	.	.	.
.	.	.	.	8e/	.	.	.
.	.	.	.	8d/	.	.	.
1A	-do	.	.	1e	.	2r	.
.	.	2c#X/	-do	.	.	2.a/	et
=36-	=36-	=36-	=36-	=36-	=36-	=36-	=36-
*	*	*	*	*lig	*	*	*
1D	ſunt	1d	ſunt	1f#X	ſunt	.	.
.	.	.	.	.	.	4a/	cor-
.	.	.	.	.	.	2a/	-ruſ-
2.G/	et	2r	.	1g	.	0b	-cas
.	.	2.d\	et	.	.	.	.
4G/	cor-	.	.	.	.	.	.
*	*	*	*	*Xlig	*	*	*
=37-	=37-	=37-	=37-	=37-	=37-	=37-	=37-
1G	-ruſ-	.	.	2r	.	.	.
.	.	4d\	cor-	.	.	.	.
.	.	2d\	-ruſ-	2.g\	et	.	.
1C	-cas	1e	-cas	.	.	2r	.
.	.	.	.	4g\	cor	.	.
*	*	*	*	*	*	*	*ij
.	.	.	.	2g\	uſ-	2.ccny\	quae
=38-	=38-	=38-	=38-	=38-	=38-	=38-	=38-
2r	.	2r	.	0a	-cas	.	.
.	.	.	.	.	.	4cc\	in
2A/	cu(m)	2e\	cu(m)	.	.	2cc\	mun-
4D/	an-	2.f\	an-	.	.	4dd\	-do
4E/	.	.	.	.	.	8cc\	sunt
.	.	.	.	.	.	8b\	et
4F/	.	.	.	.	.	4a/	cor-
4G/	.	8e\	.	.	.	4b/	-rus-
.	.	8d\	.	.	.	.	.
=39-	=39-	=39-	=39-	=39-	=39-	=39-	=39-
4A/	.	4cny/	.	2r	.	1cc	-cas
*	*	*	*	*	*	*	*Xij
4Bny\	.	4d\	.	.	.	.	.
4c\	.	4e\	.	2a\	cu(m)	.	.
!LO:SIC:v:t=custos B	!	!	!	!	!	!	!
4A/	.	4f\	.	.	.	.	.
*xywh-#176:4588,3411,3418,691	*	*	*	*	*	*	*
!LO:LB:g=original	!	!	!	!	!	!	!
2B-X\	.	2g\	.	4d/	an-	1r	.
.	.	.	.	4e/	.	.	.
2B-\	-ge-	2d\	-ge-	4fny\	.	.	.
.	.	.	.	4g\	.	.	.
=40-	=40-	=40-	=40-	=40-	=40-	=40-	=40-
1A	-lis	4c/	-lis	4a\	.	2r	.
!	!	!	!	!LO:SIC:v:t=custos cc	!	!	!
.	.	4d\	.	4bny\	.	.	.
*	*	*	*	*xywh-#480:4438,3354,3464,674	*	*	*
!	!	!	!	!LO:LB:g=original	!	!	!
*	*	*	*	*	*	*	*ij
.	.	4e\	.	4cc\	.	2.ee\	et
.	.	4f\	.	4a\	.	.	.
2.G/	et	4g\	.	2b-X\	.	.	.
.	.	8f\	.	.	.	4dd\	cor-
.	.	8e\	.	.	.	.	.
.	.	4d\	.	2b-\	-ge-	2dd\	-rus-
!	!	!LO:SIC:v:t=custos f	!	!	!	!	!
4G/	cor-	4e\	.	.	.	.	.
*	*	*xywh-#328:4573,3335,3457,676	*	*	*	*	*
!	!	!LO:LB:g=original	!	!	!	!	!
=41-	=41-	=41-	=41-	=41-	=41-	=41-	=41-
1A	-ruſ-	2f\	.	2.a\	-lis	2cc\	-cas
*	*	*	*	*	*	*	*Xij
.	.	4e\	.	.	.	2ee\	cu(m)
.	.	4d\	.	8g\	.	.	.
.	.	.	.	8f\	.	.	.
2.A/	-cas	1c	.	2e/	.	4a/	an-
.	.	.	.	.	.	4b/	.
.	.	.	.	2.a\	et	4cc\	.
4Bny\	.	.	.	.	.	4dd\	.
=42-	=42-	=42-	=42-	=42-	=42-	=42-	=42-
1c	.	2r	.	.	.	4ee\	.
!	!	!	!	!	!	!LO:SIC:v:t=custos gg	!
.	.	.	.	4a\	cor-	4ff\	.
*	*	*	*	*	*	*xywh-#632:4542,3369,3447,675	*
!	!	!	!	!	!	!LO:LB:g=original	!
.	.	2c/	cu(m)	2g\	-ruſ-	4gg\	.
.	.	.	.	.	.	4ee\	.
1r	.	4F/	an-	1a	-cas	2ff\	.
.	.	4G/	.	.	.	.	.
.	.	4A/	.	.	.	2ff\	-ge-
.	.	4B/	.	.	.	.	.
=43-	=43-	=43-	=43-	=43-	=43-	=43-	=43-
2r	.	4c/	.	2r	.	1ee	-lis
.	.	4d\	.	.	.	.	.
2A/	cu(m)	4e\	.	2e/	cu(m)	.	.
.	.	4c/	.	.	.	.	.
4D/	an-	2d\	.	2.f\	an-	1r	.
4E/	.	.	.	.	.	.	.
4F/	.	2A/	-ge-	.	.	.	.
4G/	.	.	.	8e/	.	.	.
.	.	.	.	8d/	.	.	.
=44-	=44-	=44-	=44-	=44-	=44-	=44-	=44-
4A/	.	1e	-lis	4c/	.	2r	.
4B\	.	.	.	4d/	.	.	.
4c\	.	.	.	4e/	.	2a/	cu(m)
4A/	.	.	.	4f\	.	.	.
2B-X\	.	1r	.	2g\	.	4d/	an-
.	.	.	.	.	.	4e/	.
2B-\	-ge-	.	.	4d/	.	4f/	.
.	.	.	.	4e/	.	4g/	.
=45-	=45-	=45-	=45-	=45-	=45-	=45-	=45-
1A	-lis	2r	.	4f\	.	4a/	.
!	!	!	!	!LO:SIC:v:t=custos a	!	!	!
.	.	.	.	4e\	.	4b/	.
*	*	*	*	*xywh-#480:4470,3879,3456,689	*	*	*
!	!	!	!	!LO:LB:g=original	!	!	!
.	.	2c/	ſan-	1a	.	4cc\	.
.	.	.	.	.	.	4a/	.
1r	.	2d\	-gui-	.	.	2.b-X/	.
.	.	2e\	-ne	2g\	-ge-	.	.
.	.	.	.	.	.	4b-/	-ge-
=46-	=46-	=46-	=46-	=46-	=46-	=46-	=46-
0r	.	2.f\	pro-	0a	-lis	2a/	-lis
.	.	.	.	.	.	2cc\	ſan-
.	.	4e\	.	.	.	.	.
.	.	2d\	.	.	.	2dd\	-gui-
.	.	2c#X/	-pri-	.	.	2ee\	-ne
=47-	=47-	=47-	=47-	=47-	=47-	=47-	=47-
!	!	!LO:SIC:v:t=custos d	!	!	!	!	!
0r	.	1d	-o	2r	.	2.ff\	pro-
*	*	*xywh-#328:4558,3888,3419,683	*	*	*	*	*
!	!	!LO:LB:g=original	!	!	!	!	!
.	.	.	.	2f\	ſan-	.	.
.	.	.	.	.	.	4ee\	.
.	.	1r	.	2g\	-gui-	2dd\	.
.	.	.	.	2a\	-ne	2cc#X\	-pri-
=48-	=48-	=48-	=48-	=48-	=48-	=48-	=48-
!	!	!	!	!	!	!LO:SIC:v:t=custos g	!
2r	.	1r	.	2.b-X\	pro-	0dd	-o
*	*	*	*	*	*	*xywh-#632:4550,3944,3501,621	*
!	!	!	!	!	!	!LO:LB:g=original	!
2.G/	i-	.	.	.	.	.	.
.	.	.	.	4a\	.	.	.
.	.	2r	.	2g\	.	.	.
!LO:SIC:v:t=custos d	!	!	!	!	!	!	!
4G/	-ni-	.	.	.	.	.	.
*xywh-#176:4541,3945,3450,715	*	*	*	*	*	*	*
!LO:LB:g=original	!	!	!	!	!	!	!
2d\	-mi-	2.d\	i-	2f#X\	-pri-	.	.
=49-	=49-	=49-	=49-	=49-	=49-	=49-	=49-
2Bny\	-cu(m)	.	.	1g	-o	0r	.
.	.	4d\	-ni-	.	.	.	.
2c\	vi-	2e\	-mi-	.	.	.	.
1F	-ciſ-	2cny/	-cum	2r	.	.	.
*	*	*	*	*	*ij	*	*
.	.	2d\	vi-	2fny\	san-	.	.
=50-	=50-	=50-	=50-	=50-	=50-	=50-	=50-
1c	-ti	1e	-ciſ-	2g\	-gui-	2r	.
.	.	.	.	2e/	-ne	2g/	ſan-
*	*	*lig	*	*	*	*	*
1r	.	1d	-ti	2.f\	pro-	2a/	-gui-
.	.	.	.	.	.	2bny/	-ne
.	.	.	.	4g\	.	.	.
=51-	=51-	=51-	=51-	=51-	=51-	=51-	=51-
2r	.	1c	.	2a\	.	2.ccny\	pro-
2C/	ſan-	.	.	2e/	.	.	.
.	.	.	.	.	.	4b/	.
*	*	*Xlig	*	*	*	*	*
2D/	-gui-	1r	.	2f\	.	2a/	.
2E/	-ne	.	.	4e/	.	2g#X/	-pri-
.	.	.	.	4d/	-pri-	.	.
=52-	=52-	=52-	=52-	=52-	=52-	=52-	=52-
2.F/	pro-	2r	.	1c	-o	0.a	-o
*	*	*	*	*	*Xij	*	*
.	.	2c/	ſan-	.	.	.	.
4E/	.	.	.	.	.	.	.
2D/	.	2d\	-gui-	1r	.	.	.
2C#X/	-pri-	2e\	-ne	.	.	.	.
=53-	=53-	=53-	=53-	=53-	=53-	=53-	=53-
!	!	!	!	!LO:SIC:v:t=custos a	!	!	!
2D/	-o	2.f\	pro-	1r	.	.	.
*	*	*	*	*xywh-#480:4509,4436,3432,830	*	*	*
!	!	!	!	!LO:LB:g=original	!	!	!
2.D/	i-	.	.	.	.	.	.
.	.	4e\	.	.	.	.	.
.	.	2d\	.	2r	.	1r	.
4D/	-ni-	.	.	.	.	.	.
2A/	-mi-	2c#X/	-pri-	2.a\	i-	.	.
=54-	=54-	=54-	=54-	=54-	=54-	=54-	=54-
2F#X/	-cum	1d	-o	.	.	2.dd\	i-
.	.	.	.	4a\	-ni-	.	.
2G/	vi-	.	.	2bny\	-mi-	.	.
.	.	.	.	.	.	4dd\	-ni-
1Cny	-ciſ-	1r	.	2g\	-cum	2ee\	-mi-
.	.	.	.	2a\	vi-	2cc\	-cum
=55-	=55-	=55-	=55-	=55-	=55-	=55-	=55-
*lig	*	*	*	*	*	*	*
1G	-ti	2r	.	0b#X	-ciſ-	2dd\	vi-
.	.	2.d\	i-	.	.	2.gg\	-ci-
1A	.	.	.	.	.	.	.
.	.	4d\	-ni-	.	.	4ff\	.
.	.	2e\	-mi-	.	.	1ee\	.
*	*	*	*	*	*	*lig	*
*Xlig	*	*	*	*	*	*	*
=56-	=56-	=56-	=56-	=56-	=56-	=56-	=56-
2r	.	2cny/	-cum	1a	-ti	.	.
!	!	!LO:SIC:v:t=custos e	!	!	!	!	!
*	*	*	*	*	*	*col	*
2.D/	i-	2d\	vi-	.	.	2.dd\	.
*	*	*xywh-#328:4550,4457,3419,799	*	*	*	*	*
!	!	!LO:LB:g=original	!	!	!	!	!
.	.	1e	-ciſ-	2r	.	.	.
*	*	*	*	*	*	*Xlig	*
!LO:SIC:v:t=custos E	!	!	!	!	!	!	!
4D/	-ni-	.	.	.	.	4cc\	.
*xywh-#176:4604,4535,3418,770	*	*	*	*	*	*	*
!LO:LB:g=original	!	!	!	!	!	!	!
*	*	*	*	*	*ij	*Xcol	*
2E/	-mi-	.	.	2.a\	i-	4cc\	.
.	.	.	.	.	.	8b\	.
!	!	!	!	!	!	!LO:SIC:v:t=custos dd	!
.	.	.	.	.	.	8cc#X\	.
*	*	*	*	*	*	*xywh-#632:4535,4448,3524,776	*
!	!	!	!	!	!	!LO:LB:g=original	!
=57-	=57-	=57-	=57-	=57-	=57-	=57-	=57-
1C	-cum	1d	-ti	.	.	2.dd\	.
.	.	.	.	4a\	-ni-	.	.
.	.	.	.	1f#X	-mi-	.	.
.	.	.	.	.	.	8ccny\	.
.	.	.	.	.	.	8b\	.
1D	vi-	2r	.	.	.	4a/	.
.	.	.	.	.	.	4b/	.
*	*	*	*ij	*	*	*	*
.	.	2.G/	san-	1g\	-cum	4cc\	.
.	.	.	.	.	.	4b/	.
=58-	=58-	=58-	=58-	=58-	=58-	=58-	=58-
1E	-ciſ-	.	.	.	.	4ee\	.
.	.	4G/	-gui-	.	.	4dd\	.
.	.	2A/	-ne	2e/	vi-	4cc\	.
.	.	.	.	.	.	4b/	.
1D	-ti	1F	pro-	4fny\	.	4a/	.
.	.	.	.	4e/	.	4gny/	.
.	.	.	.	4d/	.	2.a/	.
.	.	.	.	4c/	.	.	.
=59-	=59-	=59-	=59-	=59-	=59-	=59-	=59-
2r	.	1G	-pri-	2B/	-cis-	.	.
.	.	.	.	.	.	4g/	.
*	*ij	*	*	*	*	*	*
2.G/	i-	.	.	2c/	.	2.g/	.
.	.	1A	-o	1d	-ti	.	.
*	*	*	*	*	*Xij	*	*
4G/	-ni-	.	.	.	.	8f#X/	.
.	.	.	.	.	.	8e/	.
2C/	-mi-	.	.	.	.	2f#X/	.
=60-	=60-	=60-	=60-	=60-	=60-	=60-	=60-
2C/	-cum	2G/	i-	2r	.	000g	-ſti.
2BB/	vi-	2.B/	-ni-	2.d/	i-	.	.
1C	-cis-	.	.	.	.	.	.
.	.	4B/	-mi-	4d/	-ni-	.	.
.	.	2c/	-cum	2e/	-mi-	.	.
=61-	=61-	=61-	=61-	=61-	=61-	=61-	=61-
00.G	-ti	2e\	vi-	2c/	-mum	.	.
*	*Xij	*	*	*	*	*	*
.	.	2d\	.	2d/	vi-	.	.
.	.	1c	-cis-	1e	-ciſ-	.	.
=62-	=62-	=62-	=62-	=62-	=62-	=62-	=62-
.	.	00B	-ti	00d	-ti	.	.
*	*	*	*Xij	*	*	*	*
=63-	=63-	=63-	=63-	=63-	=63-	=63-	=63-
.	.	.	.	.	.	.	.
=-	=-	=-	=-	=-	=-	=-	=-
*-	*-	*-	*-	*-	*-	*-	*-
!!!system-decoration: s1,s2,s3,s4
!!!ENC: Andrzej Gręziak
!!!END: 2022-07-10
!!!ENC: Julita Ruszuk
!!!END: 2022-07-27
!!!ENC-iiif: Lidia Bialucha
!!!END-iiif: 2022-09-12
!!!YEC: Copyright 2022 Narodowy Instytut Fryderyka Chopina (https://polishscores.org)
!!!YEM: License CC-BY-4.0 (https://creativecommons.org/licenses/by/4.0)
